P3
16 16
255
26 16 48 26 16 48 26 16 48 26 16 48 26 16 48 26 16 48 26 16 48 26 16 48 26 16 48 26 16 48 26 16 48 26 16 48 26 16 48 26 16 48 26 16 48 26 16 48
35 50 77 35 50 77 35 50 77 35 50 77 35 50 77 35 50 77 35 50 77 35 50 77 35 50 77 35 50 77 35 50 77 35 50 77 35 50 77 35 50 77 35 50 77 35 50 77
23 35 58 23 35 58 23 35 58 23 35 58 23 35 58 23 35 58 23 35 58 23 35 58 23 35 58 23 35 58 23 35 58 23 35 58 23 35 58 23 35 58 23 35 58 23 35 58
60 90 134 60 90 134 60 90 134 60 90 134 60 90 134 60 90 134 60 90 134 60 90 134 60 90 134 60 90 134 60 90 134 60 90 134 60 90 134 60 90 134 60 90 134 60 90 134
242 245 249 242 245 249 242 245 249 242 245 249 242 245 249 242 245 249 242 245 249 242 245 249 242 245 249 242 245 249 242 245 249 242 245 249 242 245 249 242 245 249 242 245 249 242 245 249
16 22 35 16 22 35 16 22 35 16 22 35 16 22 35 16 22 35 16 22 35 16 22 35 16 22 35 16 22 35 16 22 35 16 22 35 16 22 35 16 22 35 16 22 35 16 22 35 16 22 35
229 143 162 229 143 162 229 143 162 229 143 162 229 143 162 229 143 162 229 143 162 229 143 162 229 143 162 229 143 162 229 143 162 229 143 162 229 143 162 229 143 162 229 143 162 229 143 162
191 227 255 191 227 255 191 227 255 191 227 255 191 227 255 191 227 255 191 227 255 191 227 255 191 227 255 191 227 255 191 227 255 191 227 255 191 227 255 191 227 255 191 227 255 191 227 255
255 0 255 255 0 255 255 0 255 255 0 255 255 0 255 255 0 255 255 0 255 255 0 255 255 0 255 255 0 255 255 0 255 255 0 255 255 0 255 255 0 255 255 0 255 255 0 255
255 0 255 255 0 255 255 0 255 255 0 255 255 0 255 255 0 255 255 0 255 255 0 255 255 0 255 255 0 255 255 0 255 255 0 255 255 0 255 255 0 255 255 0 255 255 0 255
255 0 255 255 0 255 255 0 255 255 0 255 255 0 255 255 0 255 255 0 255 255 0 255 255 0 255 255 0 255 255 0 255 255 0 255 255 0 255 255 0 255 255 0 255 255 0 255
255 0 255 255 0 255 255 0 255 255 0 255 255 0 255 255 0 255 255 0 255 255 0 255 255 0 255 255 0 255 255 0 255 255 0 255 255 0 255 255 0 255 255 0 255 255 0 255
255 0 255 255 0 255 255 0 255 255 0 255 255 0 255 255 0 255 255 0 255 255 0 255 255 0 255 255 0 255 255 0 255 255 0 255 255 0 255 255 0 255 255 0 255 255 0 255
255 0 255 255 0 255 255 0 255 255 0 255 255 0 255 255 0 255 255 0 255 255 0 255 255 0 255 255 0 255 255 0 255 255 0 255 255 0 255 255 0 255 255 0 255 255 0 255
255 0 255 255 0 255 255 0 255 255 0 255 255 0 255 255 0 255 255 0 255 255 0 255 255 0 255 255 0 255 255 0 255 255 0 255 255 0 255 255 0 255 255 0 255 255 0 255
255 0 255 255 0 255 255 0 255 255 0 255 255 0 255 255 0 255 255 0 255 255 0 255 255 0 255 255 0 255 255 0 255 255 0 255 255 0 255 255 0 255 255 0 255 255 0 255
